static/images/uploads/rd-advisory--icon.svg

<svg height="59" viewBox="0 0 49 59" width="49" xmlns="http://www.w3.org/2000/svg"><g fill="#fff" fill-rule="evenodd" transform="translate(-9 -4)"><path d="m20.1 28.14h6.7c.3690226 0 .67-.3009774.67-.67s-.3009774-.67-.67-.67h-6.7c-.3690226 0-.67.3009774-.67.67s.3009774.67.67.67z"/><path d="m22.11 62.31h29.48c3.329096 0 6.03-2.700904 6.03-6.03v-38.86c0-3.329096-2.700904-6.03-6.03-6.03h-2.01v-.67c0-3.329096-2.700904-6.03-6.03-6.03h-21.52107c-.1779654 0-.3507048.0732846-.4737101.2015226l-11.98161 12.2275c-.1230053.1230053-.1936702.293125-.1936702.4684774v30.6525c0 3.329096 2.700904 6.03 6.03 6.03h.67v2.01c0 3.329096 2.700904 6.03 6.03 6.03zm29.48-49.58c2.591024 0 4.69 2.098976 4.69 4.69v38.86c0 1.243185-.4946476 2.436589-1.374036 3.315964s-2.072846 1.374036-3.315964 1.374036h-29.48c-2.591024 0-4.69-2.098976-4.69-4.69v-2.01h26.13c3.329096 0 6.03-2.700904 6.03-6.03v-35.51zm-30.15-5.815399v8.4956c0 1.109654-.900346 2.01-2.01 2.01h-8.28053zm-10.72 41.3256v-29.48h8.71c.887214 0 1.740459-.3533178 2.368584-.981416s.981416-1.481303.981416-2.368584v-9.38h20.77c2.591024 0 4.69 2.098976 4.69 4.69v37.52c0 1.243185-.4946476 2.436589-1.374036 3.315964s-2.072846 1.374036-3.315964 1.374036h-28.14c-2.591024 0-4.69-2.098976-4.69-4.69z"/><path d="m20.1 36.18h18.76c.3690226 0 .67-.3009774.67-.67s-.3009774-.67-.67-.67h-18.76c-.3690226 0-.67.3009774-.67.67s.3009774.67.67.67z"/><path d="m20.1 44.22h18.76c.3690226 0 .67-.3009774.67-.67s-.3009774-.67-.67-.67h-18.76c-.3690226 0-.67.3009774-.67.67s.3009774.67.67.67z"/></g></svg>

<?xml version="1.0" encoding="UTF-8"?>
<svg width="49px" height="59px" viewBox="0 0 49 59" version="1.1" xmlns="http://www.w3.org/2000/svg" xmlns:xlink="http://www.w3.org/1999/xlink">
    <!-- Generator: Sketch 49.1 (51147) - http://www.bohemiancoding.com/sketch -->
    <title>Group</title>
    <desc>Created with Sketch.</desc>
    <defs></defs>
    <g id="Design" stroke="none" stroke-width="1" fill="none" fill-rule="evenodd">
        <g id="HOME-V4" transform="translate(-216.000000, -1771.000000)" fill="#FFFFFF">
            <g id="Group" transform="translate(207.000000, 1767.000000)">
                <path d="M20.1,28.14 L26.8,28.14 C27.1690226,28.14 27.47,27.8390226 27.47,27.47 C27.47,27.1009774 27.1690226,26.8 26.8,26.8 L20.1,26.8 C19.7309774,26.8 19.43,27.1009774 19.43,27.47 C19.43,27.8390226 19.7309774,28.14 20.1,28.14 Z" id="Fill-1"></path>
                <path d="M22.11,62.31 L51.59,62.31 C54.919096,62.31 57.62,59.609096 57.62,56.28 L57.62,17.42 C57.62,14.090904 54.919096,11.39 51.59,11.39 L49.58,11.39 L49.58,10.72 C49.58,7.390904 46.879096,4.69 43.55,4.69 L22.02893,4.69 C21.8509646,4.69 21.6782252,4.7632846 21.5552199,4.8915226 L9.5736099,17.1190226 C9.4506046,17.2420279 9.3799397,17.4121476 9.3799397,17.5875 L9.3799397,48.24 C9.3799397,51.569096 12.0808437,54.27 15.4099397,54.27 L16.0799397,54.27 L16.0799397,56.28 C16.0799397,59.609096 18.7808437,62.31 22.1099397,62.31 L22.11,62.31 Z M51.59,12.73 C54.181024,12.73 56.28,14.828976 56.28,17.42 L56.28,56.28 C56.28,57.523185 55.7853524,58.716589 54.905964,59.595964 C54.0265756,60.475339 52.833118,60.97 51.59,60.97 L22.11,60.97 C19.518976,60.97 17.42,58.871024 17.42,56.28 L17.42,54.27 L43.55,54.27 C46.879096,54.27 49.58,51.569096 49.58,48.24 L49.58,12.73 L51.59,12.73 Z M21.44,6.914601 L21.44,15.410201 C21.44,16.519855 20.539654,17.420201 19.43,17.420201 L11.14947,17.420201 L21.44,6.914601 Z M10.72,48.240201 L10.72,18.760201 L19.43,18.760201 C20.317214,18.760201 21.170459,18.4068832 21.798584,17.778785 C22.426709,17.1506868 22.78,16.297482 22.78,15.410201 L22.78,6.030201 L43.55,6.030201 C46.141024,6.030201 48.24,8.129177 48.24,10.720201 L48.24,48.240201 C48.24,49.483386 47.7453524,50.67679 46.865964,51.556165 C45.9865756,52.43554 44.793118,52.930201 43.55,52.930201 L15.41,52.930201 C12.818976,52.930201 10.72,50.831225 10.72,48.240201 Z" id="Fill-2"></path>
                <path d="M20.1,36.18 L38.86,36.18 C39.2290226,36.18 39.53,35.8790226 39.53,35.51 C39.53,35.1409774 39.2290226,34.84 38.86,34.84 L20.1,34.84 C19.7309774,34.84 19.43,35.1409774 19.43,35.51 C19.43,35.8790226 19.7309774,36.18 20.1,36.18 Z" id="Fill-3"></path>
                <path d="M20.1,44.22 L38.86,44.22 C39.2290226,44.22 39.53,43.9190226 39.53,43.55 C39.53,43.1809774 39.2290226,42.88 38.86,42.88 L20.1,42.88 C19.7309774,42.88 19.43,43.1809774 19.43,43.55 C19.43,43.9190226 19.7309774,44.22 20.1,44.22 Z" id="Fill-4"></path>
            </g>
        </g>
    </g>
</svg>
